X:1
T:Milwaukee, 88.88.88.66
T:Milwaukee, 88.88.88.66
T:August Lemke, 1849
T:Public Domain Courtesy of the Cyber Hymnal™
C:August Lemke, 1849
Z:Public Domain
Z:Courtesy of the Cyber Hymnal™
%%score ( 1 2 ) ( 3 4 )
L:1/8
M:3/4
K:Ab
V:1 treble 
V:2 treble 
V:3 bass 
V:4 bass 
V:1
 E2 | [Ec]4 [EA]2 | (A2 G2) [EA]2 | [EB]4 [EG]2 | E4 [B,E]2 | (E2 F2) [EG]2 | [EA]4 [DF]2 | %7
 [CE]4 [B,D]2 | [A,C]4 [A,C]2 | ([CE]2 [EA]2) [Ec]2 | B2 G2 [B,E]2 | (A2 F2) [B,=D]2 | %12
 [B,E]4 [CE]2 | [CA]4 [EB]2 | [Ec]4 [FA]2 | ([EG]2 [=DF]2) [B,D]2 | [B,E]4 [EA]2 | [EG]4 [EB]2 | %18
 [EA]4 [Ec]2 | [EB]4 [Ed]2 | [Ec]4 E2 | (d2 c2) [EB]2 | A2 G2 [DF]2 | [CE]4 [B,E]2 | [CE]4 [Ee]2 | %25
 [Ee]4 [Ec]2 | [Ad]4 [Ee]2 | [Ec]4 [CE]2 | ([DF]2 [Fd]2) [FB]2 | [EA]4 [EG]2 | [EA]4 |] %31
V:2
 E2 | x6 | E4 x2 | x6 | E4 x2 | B,4 x2 | x6 | x6 | x6 | x6 | E4 x2 | C4 x2 | x6 | x6 | x6 | x6 | %16
 x6 | x6 | x6 | x6 | x4 E2 | E4 x2 | E4 x2 | x6 | x6 | x6 | x6 | x6 | x6 | x6 | x4 |] %31
V:3
 [A,C]2 | [A,,A,]4 [A,,C]2 | ([C,A,]2 [B,,B,]2) [A,,C]2 | [G,,B,]4 [B,,B,]2 | [E,G,]4 [E,G,]2 | %5
 ([E,G,]2 [=D,A,]2) [_D,B,]2 | [C,A,]4 [D,A,]2 | [E,A,]4 [E,G,]2 | [A,,E,]4 [A,,E,]2 | %9
 A,4 [A,,A,]2 | [G,,B,]4 [G,,G,]2 | (F,2 A,2) [B,,F,]2 | [E,G,]4 [C,G,]2 | F,4 [E,G,]2 | %14
 [A,,A,]4 [F,,C]2 | [B,,B,]4 [B,,F,]2 | [E,G,]4 [A,,C]2 | [E,B,]4 [D,G,]2 | [C,A,]4 [A,,A,]2 | %19
 [E,G,]4 [G,B,]2 | A,4 [E,G,]2 | ([G,B,]2 A,2) [E,G,]2 | [C,A,]4 [D,A,]2 | [E,A,]4 [E,G,]2 | %24
 [A,,A,]4 [A,C]2 | [G,B,]4 A,2 | [F,A,]4 [G,B,]2 | A,4 [A,,A,]2 | ([D,A,]2 [B,,B,]2) [D,B,]2 | %29
 [E,C]4 [E,B,]2 | [A,,C]4 |] %31
V:4
 x2 | x6 | x6 | x6 | x6 | x6 | x6 | x6 | x6 | (A,,2 C,2) x2 | x6 | A,,4 x2 | x6 | F,4 x2 | x6 | %15
 x6 | x6 | x6 | x6 | x6 | A,4 x2 | x2 A,2 x2 | x6 | x6 | x6 | x4 A,2 | x6 | A,4 x2 | x6 | x6 | %30
 x4 |] %31

